X: 1
T:Scotch Mary
T:Scots Mary
R:reel
Z:id:hn-reel-548
M:C|
K:Ador
cE~E2 cded|cE~E2 G2AB|1 cE~E2 cded|cABG ~A3B:|2 cBcd (3efg ed|cABG A2 (3Bcd||
|:eaaf gfed|(3Bcd ef g2fg|1 eaag (3efg ed|cABG ABcd:|2 afge fded|cABG ~A3B||
"variations"
|:cE~E2 cded|cE~E2 G2AB|1 cE~E2 cded|cABG ~A3B:|2 cBcd (3efg ed|cABG A2 (3Bcd||
eaag (3efg ed|(3Bcd ef g2ag|eaaf gfed|cABG A2 (3Bcd|
eaag (3efg ed|(3Bcd ef g2fg|afge (3fga ed|(3cBA BG ~A3B||
K:Amix
"mixolydian version"
cE~E2 cded|cE~E2 G2AB|cE~E2 cded|1 cABG ~A3B:|2 cABG A2cd||
|:eaaf gfed|cdef g2fg|1 eaag efed|cABG A2Bd:|2 afge fded|cABG ~A3B||
